src/icons/map.svg

<svg width="22" height="22" viewBox="0 0 22 22" fill="none" xmlns="http://www.w3.org/2000/svg">
<path fill-rule="evenodd" clip-rule="evenodd" d="M11.8294 0C9.73663 0 8.08252 1.59845 8.08252 3.55778C8.08252 4.29304 8.76831 5.87369 9.66376 7.33902C10.382 8.51433 11.2098 9.65663 11.8294 10.4327C12.4492 9.65654 13.2848 8.51438 14.0036 7.33902C14.8997 5.87369 15.5934 4.2928 15.5934 3.55778C15.5934 1.59845 13.9251 0 11.8294 0ZM11.8294 2.19998C12.6119 2.19998 13.2387 2.82292 13.2387 3.61794C13.2387 4.40949 12.6119 5.03591 11.8294 5.03591C11.0503 5.03591 10.4286 4.40857 10.4286 3.61794C10.4286 2.82384 11.0503 2.19998 11.8294 2.19998Z" fill="#1B365D"/>
<path fill-rule="evenodd" clip-rule="evenodd" d="M0 5.24072L6.60005 9.15625V21.5819L0 17.6662V5.24072Z" fill="#1B365D"/>
<path fill-rule="evenodd" clip-rule="evenodd" d="M16.147 5.68604L22 9.1565V21.582L15.3999 17.6663V7.13887C15.681 6.64841 15.938 6.16107 16.147 5.68604Z" fill="#1B365D"/>
<path fill-rule="evenodd" clip-rule="evenodd" d="M9.01598 8.375C9.87573 9.7245 10.8092 10.9566 11.4176 11.6588C11.4692 11.7184 11.533 11.7661 11.6047 11.7989C11.6765 11.8316 11.7544 11.8485 11.8332 11.8485C11.912 11.8485 11.9899 11.8316 12.0616 11.7989C12.1333 11.7661 12.1971 11.7184 12.2488 11.6588C12.775 11.0515 13.5451 10.0471 14.3003 8.91365V17.666L7.7002 21.5817V9.15592L9.01598 8.375Z" fill="#1B365D"/>
</svg>

<svg width="22" height="22" xmlns="http://www.w3.org/2000/svg"><path fill-rule="evenodd" clip-rule="evenodd" d="M11.83 0C9.736 0 8.082 1.598 8.082 3.558c0 .735.685 2.316 1.58 3.781a31.93 31.93 0 002.166 3.094 31.928 31.928 0 002.175-3.094c.896-1.465 1.59-3.046 1.59-3.781 0-1.96-1.669-3.558-3.765-3.558zm0 2.2c.782 0 1.409.623 1.409 1.418a1.406 1.406 0 11-2.81 0 1.4 1.4 0 011.4-1.418zM0 5.24l6.6 3.916v12.426L0 17.666V5.241zM16.147 5.686L22 9.156v12.426l-6.6-3.916V7.14c.281-.49.538-.978.747-1.453z"/><path fill-rule="evenodd" clip-rule="evenodd" d="M9.016 8.375c.86 1.35 1.793 2.582 2.402 3.284a.55.55 0 00.83 0c.527-.607 1.297-1.612 2.052-2.745v8.752l-6.6 3.916V9.156l1.316-.781z" /></svg>
